modules/material-icons/icons/outlook.svg

<?xml version="1.0" encoding="UTF-8" standalone="no"?>
<svg
   xmlns:dc="http://purl.org/dc/elements/1.1/"
   xmlns:cc="http://creativecommons.org/ns#"
   xmlns:rdf="http://www.w3.org/1999/02/22-rdf-syntax-ns#"
   xmlns:svg="http://www.w3.org/2000/svg"
   xmlns="http://www.w3.org/2000/svg"
   viewBox="0 0 480 480"
   height="480"
   width="480"
   xml:space="preserve"
   version="1.1"
   id="svg3390"><metadata
     id="metadata3396"><rdf:RDF><cc:Work
         rdf:about=""><dc:format>image/svg+xml</dc:format><dc:type
           rdf:resource="http://purl.org/dc/dcmitype/StillImage" /><dc:title></dc:title></cc:Work></rdf:RDF></metadata><defs
     id="defs3394"><clipPath
       id="clipPath3404"
       clipPathUnits="userSpaceOnUse"><path
         id="path3406"
         d="M 0,48 48,48 48,0 0,0 0,48 Z" /></clipPath><clipPath
       id="clipPath3416"
       clipPathUnits="userSpaceOnUse"><path
         id="path3418"
         d="M 0,48 48,48 48,0 0,0 0,48 Z" /></clipPath><clipPath
       id="clipPath3426"
       clipPathUnits="userSpaceOnUse"><path
         id="path3428"
         d="M 0,48 48,48 48,0 0,0 0,48 Z" /></clipPath><clipPath
       id="clipPath3434"
       clipPathUnits="userSpaceOnUse"><path
         id="path3436"
         d="M 0,48 48,48 48,0 0,0 0,48 Z" /></clipPath><clipPath
       id="clipPath3442"
       clipPathUnits="userSpaceOnUse"><path
         id="path3444"
         d="m -2.13623e-4,48.0002 48.000013623,0 0,-48.000047412 -48.000013623,0 0,48.000047412 z" /></clipPath><clipPath
       id="clipPath3446"
       clipPathUnits="userSpaceOnUse"><path
         id="path3448"
         d="m -2.13623e-4,47.9998 48.000013623,0 0,-47.999952588 -48.000013623,0 0,47.999952588 z" /></clipPath><clipPath
       id="clipPath3450"
       clipPathUnits="userSpaceOnUse"><path
         id="path3452"
         d="M 48,48 0,48 0,0 48,0 48,48 Z" /></clipPath><clipPath
       id="clipPath3658"
       clipPathUnits="userSpaceOnUse"><path
         id="path3660"
         d="M 0,48 48,48 48,0 0,0 0,48 Z" /></clipPath><clipPath
       id="clipPath3668"
       clipPathUnits="userSpaceOnUse"><path
         id="path3670"
         d="m -2.28882e-4,48.0001 48.000028882,0 0,-47.99997793 -48.000028882,0 0,47.99997793 z" /></clipPath><clipPath
       id="clipPath3676"
       clipPathUnits="userSpaceOnUse"><path
         id="path3678"
         d="m -2.28882e-4,48.0001 48.000028882,0 0,-47.99997793 -48.000028882,0 0,47.99997793 z" /></clipPath><clipPath
       id="clipPath3680"
       clipPathUnits="userSpaceOnUse"><path
         id="path3682"
         d="M 0,0 48,0 48,48 0,48 0,0 Z" /></clipPath></defs><g
     transform="matrix(1.25,0,0,-1.25,0,480)"
     id="g3398"><g
       id="g3412"><g
         clip-path="url(#clipPath3416)"
         id="g3414"><g
           transform="matrix(1,0,0,-1,0,48)"
           id="g3420"><g
             id="g3422"><g
               clip-path="url(#clipPath3426)"
               id="g3424" /></g></g></g></g><path
       id="path3762"
       d=""
       style="fill:#000000" /><path
       id="path3760"
       d=""
       style="fill:#000000" /><path
       id="path3758"
       d=""
       style="fill:#000000" /><g
       transform="matrix(6.4707904,0,0,-6.4,30.227005,352)"
       id="g4192"><path
         style="fill:#000000"
         d="m 31.221,10.6 0,9.78 3.418,2.152 c 0.09,0.026 0.286,0.029 0.376,0 l 14.71,-9.917 c 0,-1.174 -1.094,-2.015 -1.713,-2.015 l -16.791,0 z"
         id="path4178" /><path
         style="fill:#000000"
         d="m 31.221,24.031 3.12,2.142 c 0.438,0.323 0.968,0 0.968,0 -0.527,0.323 14.418,-9.604 14.418,-9.604 l 0,17.976 c 0,1.957 -1.253,2.777 -2.661,2.777 l -15.846,0 0,-13.292 0.001,0 z"
         id="path4180" /><path
         style="fill:#000000"
         d="m 15.072,19.521 c -1.064,0 -1.91,0.5 -2.537,1.497 -0.625,0.997 -0.938,2.317 -0.938,3.961 0,1.667 0.313,2.985 0.938,3.955 0.627,0.972 1.448,1.454 2.46,1.454 1.046,0 1.877,-0.472 2.488,-1.414 0.613,-0.942 0.921,-2.253 0.921,-3.926 0,-1.745 -0.298,-3.103 -0.891,-4.073 -0.596,-0.97 -1.408,-1.454 -2.441,-1.454 z"
         id="path4182" /><path
         style="fill:#000000"
         d="m 0.274,5.634 0,38.264 29.108,6.102 0,-50 -29.108,5.634 z m 19.478,25.599 c -1.23,1.618 -2.835,2.431 -4.813,2.431 -1.928,0 -3.499,-0.786 -4.713,-2.353 -1.213,-1.569 -1.822,-3.614 -1.822,-6.133 0,-2.66 0.617,-4.813 1.849,-6.457 1.234,-1.644 2.868,-2.466 4.901,-2.466 1.922,0 3.477,0.786 4.66,2.359 1.187,1.573 1.781,3.646 1.781,6.222 0.002,2.647 -0.613,4.78 -1.843,6.398 z"
         id="path4184" /></g></g><style
     type="text/css"
     id="style3999">
	.st0{fill:#FFFFFF;}
</style><style
     type="text/css"
     id="style4048">
	.st0{fill:#FFFFFF;}
</style></svg>

<svg xmlns="http://www.w3.org/2000/svg" viewBox="0 0 480 480" height="480" width="480" xml:space="preserve" version="1.1" id="svg3390"><defs id="defs3394"><clipPath id="clipPath3404" clipPathUnits="userSpaceOnUse"><path id="path3406" d="M0 48h48V0H0v48z"/></clipPath><clipPath id="clipPath3416" clipPathUnits="userSpaceOnUse"><path id="path3418" d="M0 48h48V0H0v48z"/></clipPath><clipPath id="clipPath3426" clipPathUnits="userSpaceOnUse"><path id="path3428" d="M0 48h48V0H0v48z"/></clipPath><clipPath id="clipPath3434" clipPathUnits="userSpaceOnUse"><path id="path3436" d="M0 48h48V0H0v48z"/></clipPath><clipPath id="clipPath3442" clipPathUnits="userSpaceOnUse"><path id="path3444" d="M0 48h48V0H0v48z"/></clipPath><clipPath id="clipPath3446" clipPathUnits="userSpaceOnUse"><path id="path3448" d="M0 48h48V0H0v48z"/></clipPath><clipPath id="clipPath3450" clipPathUnits="userSpaceOnUse"><path id="path3452" d="M48 48H0V0h48v48z"/></clipPath><clipPath id="clipPath3658" clipPathUnits="userSpaceOnUse"><path id="path3660" d="M0 48h48V0H0v48z"/></clipPath><clipPath id="clipPath3668" clipPathUnits="userSpaceOnUse"><path id="path3670" d="M0 48h48V0H0v48z"/></clipPath><clipPath id="clipPath3676" clipPathUnits="userSpaceOnUse"><path id="path3678" d="M0 48h48V0H0v48z"/></clipPath><clipPath id="clipPath3680" clipPathUnits="userSpaceOnUse"><path id="path3682" d="M0 0h48v48H0V0z"/></clipPath></defs><g transform="matrix(1.25 0 0 -1.25 0 480)" id="g3398"><g transform="matrix(6.47079 0 0 -6.4 30.227 352)" id="g4192" fill="#000"><path d="M31.221 10.6v9.78l3.418 2.152c.09.026.286.029.376 0l14.71-9.917c0-1.174-1.094-2.015-1.713-2.015H31.221z" id="path4178"/><path d="M31.221 24.031l3.12 2.142c.438.323.968 0 .968 0-.527.323 14.418-9.604 14.418-9.604v17.976c0 1.957-1.253 2.777-2.661 2.777H31.22V24.03h.001z" id="path4180"/><path d="M15.072 19.521c-1.064 0-1.91.5-2.537 1.497-.625.997-.938 2.317-.938 3.961 0 1.667.313 2.985.938 3.955.627.972 1.448 1.454 2.46 1.454 1.046 0 1.877-.472 2.488-1.414.613-.942.921-2.253.921-3.926 0-1.745-.298-3.103-.891-4.073-.596-.97-1.408-1.454-2.441-1.454z" id="path4182"/><path d="M.274 5.634v38.264L29.382 50V0L.274 5.634zm19.478 25.599c-1.23 1.618-2.835 2.431-4.813 2.431-1.928 0-3.499-.786-4.713-2.353-1.213-1.569-1.822-3.614-1.822-6.133 0-2.66.617-4.813 1.849-6.457 1.234-1.644 2.868-2.466 4.901-2.466 1.922 0 3.477.786 4.66 2.359 1.187 1.573 1.781 3.646 1.781 6.222.002 2.647-.613 4.78-1.843 6.398z" id="path4184"/></g></g><style type="text/css" id="style3999"></style><style type="text/css" id="style4048"></style></svg>
